X: 474
T: Ba cong
L: 1/8
M: 2/4
K: Bb
f' g' f' d' [I:setbarnb 1]| 
c'3b | 
c'2z2 | 
f'2d' c' | 
b3g | 
b4 | 
g bc'2 | 
f' g' f' d' | 
c'2f'2 | 
f' d' c' b | 
bf2b | 
d' c' b g | 
f3e | 
f2z2 | 
b c' f' g' | 
f'2c' b | 
bf2b | 
d' c' b f | 
f3e | 
f2z2 |]

@@@ Tune index: 9348
